<?xml version="1.0" encoding="UTF-8"?>
<map version="1.10" tiledversion="1.11.0" orientation="orthogonal" renderorder="right-down" width="10" height="10" tilewidth="32" tileheight="32" infinite="0" nextlayerid="3" nextobjectid="1">
 <tileset firstgid="1" name="buch-dungeon-tileset" tilewidth="32" tileheight="32" tilecount="54" columns="9">
  <image source="../../Experiments/examples/public/assets/tilemaps/tiles/buch-dungeon-tileset.png" width="304" height="208"/>
 </tileset>
 <layer id="1" name="Ground" width="10" height="10">
  <data encoding="csv">
14,15,15,6,15,5,5,6,14,15,
4,5,6,15,13,14,15,6,15,14,
6,4,4,15,15,14,4,4,6,14,
6,15,5,14,15,5,4,13,4,15,
5,6,5,5,13,14,4,13,14,6,
5,6,5,6,6,15,15,6,4,13,
5,13,13,15,15,5,4,6,4,14,
14,5,13,14,13,14,6,14,5,6,
14,15,4,15,6,6,5,15,4,4,
14,15,13,6,5,15,6,5,6,14
</data>
 </layer>
 <layer id="2" name="Objects" width="10" height="10">
  <data encoding="csv">
0,0,0,0,0,0,0,0,0,0,
0,0,0,0,0,0,0,0,0,0,
0,0,1,2,3,0,0,0,8,0,
0,0,10,11,12,0,0,0,8,0,
0,0,0,0,0,0,0,0,8,0,
0,0,0,0,0,0,0,0,0,0,
0,0,0,0,0,0,0,0,0,0,
0,0,0,0,0,0,0,0,0,0,
0,0,0,0,0,0,0,0,0,0,
0,0,0,0,0,0,0,0,0,0
</data>
 </layer>
</map>
